X: 42364
T: Welcome To The Country
R: reel
M: 4/4
K: Gdorian
|:G2dG cFAF|GABc dfcA|G2dG cFAF|GBAF G3D|
G2dG cFAF|GABc defg|(3agf ge fdcA|GBAF G3z:|
|:f2de fdcA|G2g^f gbag|f2de fdcA|GBAF G3e|
f2de fdcA|G2g^f gbag|f2de fdcA|GBAF G3z:|

